logos/uservoice-icon.svg

<?xml version="1.0" encoding="UTF-8"?>
<svg width="256px" height="320px" viewBox="0 0 256 320" version="1.1" xmlns="http://www.w3.org/2000/svg" xmlns:xlink="http://www.w3.org/1999/xlink" preserveAspectRatio="xMidYMid">
    <g>
        <path d="M202.4,0 L256,35.2 L256,211.2 C255.2,271.2 204,317.6 162.4,317.6 C203.2,292.8 213.6,256.8 213.6,221.6 L213.6,221.6 L213.6,56 L202.4,48.8 L192,56 L192,224 L191.987074,225.581086 C191.13504,277.65968 148.272,320 96,320 C43.2,320 0,276.8 0,224 L0,224 L0,213.6 C0,203.2 10.4,192 10.4,181.6 C10.4,176.576744 8.06360195,171.164089 5.56419938,165.905382 L5.06278944,164.855854 C4.14191455,162.936074 3.21860465,161.04186 2.4,159.2 C0.8,156.8 0,152.8 0,149.6 C0,137.6 9.6,128 20.8,128 C32.8,128 42.4,137.6 42.4,149.6 C42.4,152.8 41.6,156 40,159.2 C39.1813953,161.04186 38.2580855,162.936074 37.3372106,164.855854 L36.8358006,165.905382 C34.3363981,171.164089 32,176.576744 32,181.6 C32,186.8 34.6,192.2 37.2,197.6 L37.8226688,198.895898 C40.19936,203.86272 42.4,208.816 42.4,213.6 L42.4,213.6 L42.4,224 L42.4047896,224.718791 C42.72056,248.39872 58.616,268.072 80,275.2 C69.6,260.8 64,243.2 64,224 L64,224 L64,213.6 C64,208.4 66.6,203 69.2,197.6 L69.8226688,196.304102 C72.19936,191.33728 74.4,186.384 74.4,181.6 C74.4,176.576744 72.0636019,171.164089 69.5641994,165.905382 L69.0627894,164.855854 C68.1419145,162.936074 67.2186047,161.04186 66.4,159.2 C64.8,156.8 64,152.8 64,149.6 C64,137.6 72.8,128 84.8,128 C96.8,128 106.4,137.6 106.4,149.6 C106.4,152.8 105.6,156 104,159.2 C103.181395,161.04186 102.258085,162.936074 101.337211,164.855854 L100.835801,165.905382 C98.3363981,171.164089 96,176.576744 96,181.6 C96,186.8 98.6,192.2 101.2,197.6 L101.822669,198.895898 C104.19936,203.86272 106.4,208.816 106.4,213.6 L106.4,213.6 L106.4,224 C106.4,240.8 113.6,256.8 126.4,267.2 C140,257.6 148.8,241.6 148.8,224 L148.8,224 L148.8,35.2 L202.4,0 Z M21.6,70.4 C33.5293506,70.4 43.2,80.0706494 43.2,92 C43.2,103.929351 33.5293506,113.6 21.6,113.6 C9.6706494,113.6 0,103.929351 0,92 C0,80.0706494 9.6706494,70.4 21.6,70.4 Z M85.6,69.6 C97.5293506,69.6 107.2,79.2706494 107.2,91.2 C107.2,103.129351 97.5293506,112.8 85.6,112.8 C73.6706494,112.8 64,103.129351 64,91.2 C64,79.2706494 73.6706494,69.6 85.6,69.6 Z M21.6,12.8 C33.5293506,12.8 43.2,22.4706494 43.2,34.4 C43.2,46.3293506 33.5293506,56 21.6,56 C9.6706494,56 0,46.3293506 0,34.4 C0,22.4706494 9.6706494,12.8 21.6,12.8 Z M85.6,12 C97.5293506,12 107.2,21.6706494 107.2,33.6 C107.2,45.5293506 97.5293506,55.2 85.6,55.2 C73.6706494,55.2 64,45.5293506 64,33.6 C64,21.6706494 73.6706494,12 85.6,12 Z" fill="#FF6720"></path>
    </g>
</svg>

<svg preserveAspectRatio="xMidYMid" viewBox="0 0 256 320" xmlns="http://www.w3.org/2000/svg">
  <path fill="#FF6720" d="M202.4 0 256 35.2v176c-.8 60-52 106.4-93.6 106.4 40.8-24.8 51.2-60.8 51.2-96V56l-11.2-7.2L192 56v168l-.013 1.581C191.135 277.66 148.272 320 96 320c-52.8 0-96-43.2-96-96v-10.4c0-10.4 10.4-21.6 10.4-32 0-5.023-2.336-10.436-4.836-15.695l-.501-1.05c-.921-1.919-1.844-3.813-2.663-5.655-1.6-2.4-2.4-6.4-2.4-9.6 0-12 9.6-21.6 20.8-21.6 12 0 21.6 9.6 21.6 21.6 0 3.2-.8 6.4-2.4 9.6-.819 1.842-1.742 3.736-2.663 5.656l-.501 1.05C34.336 171.163 32 176.575 32 181.6c0 5.2 2.6 10.6 5.2 16l.623 1.296c2.376 4.967 4.577 9.92 4.577 14.704V224l.005.719C42.72 248.399 58.616 268.072 80 275.2c-10.4-14.4-16-32-16-51.2v-10.4c0-5.2 2.6-10.6 5.2-16l.623-1.296c2.376-4.967 4.577-9.92 4.577-14.704 0-5.023-2.336-10.436-4.836-15.695l-.501-1.05c-.921-1.919-1.844-3.813-2.663-5.655-1.6-2.4-2.4-6.4-2.4-9.6 0-12 8.8-21.6 20.8-21.6s21.6 9.6 21.6 21.6c0 3.2-.8 6.4-2.4 9.6-.819 1.842-1.742 3.736-2.663 5.656l-.501 1.05C98.336 171.163 96 176.575 96 181.6c0 5.2 2.6 10.6 5.2 16l.623 1.296c2.376 4.967 4.577 9.92 4.577 14.704V224c0 16.8 7.2 32.8 20 43.2 13.6-9.6 22.4-25.6 22.4-43.2V35.2L202.4 0ZM21.6 70.4c11.93 0 21.6 9.67 21.6 21.6 0 11.93-9.67 21.6-21.6 21.6C9.67 113.6 0 103.93 0 92c0-11.93 9.67-21.6 21.6-21.6Zm64-.8c11.93 0 21.6 9.67 21.6 21.6 0 11.93-9.67 21.6-21.6 21.6-11.93 0-21.6-9.67-21.6-21.6 0-11.93 9.67-21.6 21.6-21.6Zm-64-56.8c11.93 0 21.6 9.67 21.6 21.6 0 11.93-9.67 21.6-21.6 21.6C9.67 56 0 46.33 0 34.4c0-11.93 9.67-21.6 21.6-21.6Zm64-.8c11.93 0 21.6 9.67 21.6 21.6 0 11.93-9.67 21.6-21.6 21.6-11.93 0-21.6-9.67-21.6-21.6C64 21.67 73.67 12 85.6 12Z"/>
</svg>
